X:4745
T:Och A Bhodaich Na Ri Rium
O:england
S:Alexander Mackay, A collection of Reels...
B:NLS Glen.344
N:Mc16 in Gore's Scottish Fiddle Music Index
N:Gore guesses 1802, a note (by Murdoch Henderson)
N:on the titlepage says there's an 1832 watermark.
M:C|
L:1/8
K:E Minor
e|.d.c.B.A G>AB>e|d>GB>G d>GB>e|.d.c.B.A GABG  |B>ee>d  e2e     :|
g| d>eg>a  b>ga>b|gedB   gdde  | d>eg>a  b>ga>b|ea{b}ag e2(e/f/g)|
d>eg>a  b>ga>b|gedB   d>eg>a| bgab    egBG  |Beed    e3      |]
